flaticon/seo-and-analytics/browser-24.svg

<svg xmlns="http://www.w3.org/2000/svg" width="32" height="32" viewBox="0 0 24 24">
    <path d="M20.800781 16.800781C20.640625 16.640625 20.398438 16.640625 20.238281 16.800781L18.800781 18.238281 17.359375 16.800781C17.199219 16.640625 16.960938 16.640625 16.800781 16.800781 16.640625 16.960938 16.640625 17.199219 16.800781 17.359375L18.238281 18.800781 16.839844 20.199219C16.679688 20.359375 16.679688 20.601562 16.839844 20.761719 16.921875 20.839844 17 20.878906 17.121094 20.878906 17.199219 20.878906 17.320312 20.839844 17.398438 20.761719L18.800781 19.359375 20.199219 20.761719C20.28125 20.839844 20.359375 20.878906 20.480469 20.878906 20.601562 20.878906 20.71875 20.839844 20.761719 20.761719 20.917969 20.601562 20.917969 20.359375 20.761719 20.199219L19.359375 18.800781 20.800781 17.359375C20.960938 17.199219 20.960938 16.960938 20.800781 16.800781zM2.800781 1.199219C1.921875 1.199219 1.199219 1.921875 1.199219 2.800781 1.199219 3.679688 1.921875 4.398438 2.800781 4.398438 3.679688 4.398438 4.398438 3.679688 4.398438 2.800781 4.398438 1.921875 3.679688 1.199219 2.800781 1.199219zM2.800781 3.601562C2.359375 3.601562 2 3.238281 2 2.800781 2 2.359375 2.359375 2 2.800781 2 3.238281 2 3.601562 2.359375 3.601562 2.800781 3.601562 3.238281 3.238281 3.601562 2.800781 3.601562zM6.398438 1.199219C5.519531 1.199219 4.800781 1.921875 4.800781 2.800781 4.800781 3.679688 5.519531 4.398438 6.398438 4.398438 7.28125 4.398438 8 3.679688 8 2.800781 8 1.921875 7.28125 1.199219 6.398438 1.199219zM6.398438 3.601562C5.960938 3.601562 5.601562 3.238281 5.601562 2.800781 5.601562 2.359375 5.960938 2 6.398438 2 6.839844 2 7.199219 2.359375 7.199219 2.800781 7.199219 3.238281 6.839844 3.601562 6.398438 3.601562zM10 1.199219C9.121094 1.199219 8.398438 1.921875 8.398438 2.800781 8.398438 3.679688 9.121094 4.398438 10 4.398438 10.878906 4.398438 11.601562 3.679688 11.601562 2.800781 11.601562 1.921875 10.878906 1.199219 10 1.199219zM10 3.601562C9.558594 3.601562 9.199219 3.238281 9.199219 2.800781 9.199219 2.359375 9.558594 2 10 2 10.441406 2 10.800781 2.359375 10.800781 2.800781 10.800781 3.238281 10.441406 3.601562 10 3.601562zM10 3.601562"/>
    <path d="M 22.878906 0 L 1.160156 0 C 0.519531 0 0 0.519531 0 1.160156 L 0 22.640625 C 0 23.398438 0.601562 24 1.359375 24 L 18.800781 24 C 21.679688 24 24 21.679688 24 18.800781 L 24 1.160156 C 24 0.519531 23.480469 0 22.878906 0 Z M 18.800781 23.199219 C 16.359375 23.199219 14.398438 21.238281 14.398438 18.800781 C 14.398438 16.359375 16.359375 14.398438 18.800781 14.398438 C 21.238281 14.398438 23.199219 16.359375 23.199219 18.800781 C 23.199219 21.238281 21.238281 23.199219 18.800781 23.199219 Z M 23.199219 16.019531 C 22.339844 14.660156 20.863281 13.726562 19.15625 13.613281 C 19.144531 13.613281 19.132812 13.609375 19.121094 13.609375 C 19.082031 13.609375 19.039062 13.605469 19 13.605469 C 18.984375 13.605469 18.972656 13.601562 18.957031 13.601562 C 18.90625 13.601562 18.851562 13.601562 18.800781 13.601562 C 18.441406 13.601562 18.089844 13.636719 17.75 13.707031 C 17.453125 13.765625 17.164062 13.851562 16.890625 13.960938 C 16.851562 13.976562 16.8125 13.992188 16.773438 14.007812 C 16.539062 14.105469 16.3125 14.222656 16.101562 14.351562 C 16.027344 14.394531 15.957031 14.4375 15.890625 14.484375 C 15.542969 14.71875 15.226562 14.992188 14.949219 15.300781 C 14.808594 15.453125 14.675781 15.617188 14.558594 15.785156 C 14.507812 15.855469 14.460938 15.921875 14.417969 15.992188 C 14.28125 16.203125 14.160156 16.425781 14.058594 16.65625 C 14.023438 16.734375 13.992188 16.8125 13.960938 16.890625 C 13.726562 17.480469 13.601562 18.125 13.601562 18.800781 C 13.601562 18.855469 13.601562 18.910156 13.601562 18.960938 C 13.601562 18.972656 13.601562 18.980469 13.601562 18.988281 C 13.664062 20.765625 14.613281 22.3125 16.019531 23.199219 L 1.359375 23.199219 C 1.039062 23.199219 0.800781 22.960938 0.800781 22.640625 L 0.800781 5.601562 L 23.199219 5.601562 Z M 0.800781 4.800781 L 0.800781 1.160156 C 0.800781 0.960938 0.960938 0.800781 1.160156 0.800781 L 22.839844 0.800781 C 23.039062 0.800781 23.199219 0.960938 23.199219 1.160156 L 23.199219 4.800781 Z M 0.800781 4.800781"/>
    <path d="M2.398438 8.398438L7.601562 8.398438C7.839844 8.398438 8 8.238281 8 8 8 7.761719 7.839844 7.601562 7.601562 7.601562L2.398438 7.601562C2.160156 7.601562 2 7.761719 2 8 2 8.238281 2.160156 8.398438 2.398438 8.398438zM9.199219 8.398438L13.199219 8.398438C13.441406 8.398438 13.601562 8.238281 13.601562 8 13.601562 7.761719 13.441406 7.601562 13.199219 7.601562L9.199219 7.601562C8.960938 7.601562 8.800781 7.761719 8.800781 8 8.800781 8.238281 8.960938 8.398438 9.199219 8.398438zM14.800781 8.398438L15.601562 8.398438C15.839844 8.398438 16 8.238281 16 8 16 7.761719 15.839844 7.601562 15.601562 7.601562L14.800781 7.601562C14.558594 7.601562 14.398438 7.761719 14.398438 8 14.398438 8.238281 14.558594 8.398438 14.800781 8.398438zM11.199219 9.601562C11.199219 9.839844 11.359375 10 11.601562 10L17.601562 10C17.839844 10 18 9.839844 18 9.601562 18 9.359375 17.839844 9.199219 17.601562 9.199219L11.601562 9.199219C11.359375 9.199219 11.199219 9.359375 11.199219 9.601562zM10.398438 9.601562C10.398438 9.359375 10.238281 9.199219 10 9.199219L4.398438 9.199219C4.160156 9.199219 4 9.359375 4 9.601562 4 9.839844 4.160156 10 4.398438 10L10 10C10.238281 10 10.398438 9.839844 10.398438 9.601562zM2.398438 10L2.800781 10C3.039062 10 3.199219 9.839844 3.199219 9.601562 3.199219 9.359375 3.039062 9.199219 2.800781 9.199219L2.398438 9.199219C2.160156 9.199219 2 9.359375 2 9.601562 2 9.839844 2.160156 10 2.398438 10zM2.398438 11.601562L6 11.601562C6.238281 11.601562 6.398438 11.441406 6.398438 11.199219 6.398438 10.960938 6.238281 10.800781 6 10.800781L2.398438 10.800781C2.160156 10.800781 2 10.960938 2 11.199219 2 11.441406 2.160156 11.601562 2.398438 11.601562zM7.601562 11.601562L8.398438 11.601562C8.640625 11.601562 8.800781 11.441406 8.800781 11.199219 8.800781 10.960938 8.640625 10.800781 8.398438 10.800781L7.601562 10.800781C7.359375 10.800781 7.199219 10.960938 7.199219 11.199219 7.199219 11.441406 7.359375 11.601562 7.601562 11.601562zM15.601562 10.800781L10 10.800781C9.761719 10.800781 9.601562 10.960938 9.601562 11.199219 9.601562 11.441406 9.761719 11.601562 10 11.601562L15.601562 11.601562C15.839844 11.601562 16 11.441406 16 11.199219 16 10.960938 15.839844 10.800781 15.601562 10.800781zM2.398438 13.199219L7.601562 13.199219C7.839844 13.199219 8 13.039062 8 12.800781 8 12.558594 7.839844 12.398438 7.601562 12.398438L2.398438 12.398438C2.160156 12.398438 2 12.558594 2 12.800781 2 13.039062 2.160156 13.199219 2.398438 13.199219zM13.199219 12.398438L9.199219 12.398438C8.960938 12.398438 8.800781 12.558594 8.800781 12.800781 8.800781 13.039062 8.960938 13.199219 9.199219 13.199219L13.199219 13.199219C13.441406 13.199219 13.601562 13.039062 13.601562 12.800781 13.601562 12.558594 13.441406 12.398438 13.199219 12.398438zM13.199219 14L11.601562 14C11.359375 14 11.199219 14.160156 11.199219 14.398438 11.199219 14.640625 11.359375 14.800781 11.601562 14.800781L13.199219 14.800781C13.441406 14.800781 13.601562 14.640625 13.601562 14.398438 13.601562 14.160156 13.441406 14 13.199219 14zM4 14.398438C4 14.640625 4.160156 14.800781 4.398438 14.800781L10 14.800781C10.238281 14.800781 10.398438 14.640625 10.398438 14.398438 10.398438 14.160156 10.238281 14 10 14L4.398438 14C4.160156 14 4 14.160156 4 14.398438zM2.398438 14.800781L2.800781 14.800781C3.039062 14.800781 3.199219 14.640625 3.199219 14.398438 3.199219 14.160156 3.039062 14 2.800781 14L2.398438 14C2.160156 14 2 14.160156 2 14.398438 2 14.640625 2.160156 14.800781 2.398438 14.800781zM2.398438 16.398438L6 16.398438C6.238281 16.398438 6.398438 16.238281 6.398438 16 6.398438 15.761719 6.238281 15.601562 6 15.601562L2.398438 15.601562C2.160156 15.601562 2 15.761719 2 16 2 16.238281 2.160156 16.398438 2.398438 16.398438zM7.601562 16.398438L8.398438 16.398438C8.640625 16.398438 8.800781 16.238281 8.800781 16 8.800781 15.761719 8.640625 15.601562 8.398438 15.601562L7.601562 15.601562C7.359375 15.601562 7.199219 15.761719 7.199219 16 7.199219 16.238281 7.359375 16.398438 7.601562 16.398438zM12.800781 15.601562L10 15.601562C9.761719 15.601562 9.601562 15.761719 9.601562 16 9.601562 16.238281 9.761719 16.398438 10 16.398438L12.800781 16.398438C13.039062 16.398438 13.199219 16.238281 13.199219 16 13.199219 15.761719 13.039062 15.601562 12.800781 15.601562zM2.398438 18L7.601562 18C7.839844 18 8 17.839844 8 17.601562 8 17.359375 7.839844 17.199219 7.601562 17.199219L2.398438 17.199219C2.160156 17.199219 2 17.359375 2 17.601562 2 17.839844 2.160156 18 2.398438 18zM9.199219 18L11.199219 18C11.441406 18 11.601562 17.839844 11.601562 17.601562 11.601562 17.359375 11.441406 17.199219 11.199219 17.199219L9.199219 17.199219C8.960938 17.199219 8.800781 17.359375 8.800781 17.601562 8.800781 17.839844 8.960938 18 9.199219 18zM4 19.199219C4 19.441406 4.160156 19.601562 4.398438 19.601562L10 19.601562C10.238281 19.601562 10.398438 19.441406 10.398438 19.199219 10.398438 18.960938 10.238281 18.800781 10 18.800781L4.398438 18.800781C4.160156 18.800781 4 18.960938 4 19.199219zM2.398438 19.601562L2.800781 19.601562C3.039062 19.601562 3.199219 19.441406 3.199219 19.199219 3.199219 18.960938 3.039062 18.800781 2.800781 18.800781L2.398438 18.800781C2.160156 18.800781 2 18.960938 2 19.199219 2 19.441406 2.160156 19.601562 2.398438 19.601562zM2.398438 21.199219L6 21.199219C6.238281 21.199219 6.398438 21.039062 6.398438 20.800781 6.398438 20.558594 6.238281 20.398438 6 20.398438L2.398438 20.398438C2.160156 20.398438 2 20.558594 2 20.800781 2 21.039062 2.160156 21.199219 2.398438 21.199219zM8.398438 20.398438L7.601562 20.398438C7.359375 20.398438 7.199219 20.558594 7.199219 20.800781 7.199219 21.039062 7.359375 21.199219 7.601562 21.199219L8.398438 21.199219C8.640625 21.199219 8.800781 21.039062 8.800781 20.800781 8.800781 20.558594 8.640625 20.398438 8.398438 20.398438zM12 20.398438L10 20.398438C9.761719 20.398438 9.601562 20.558594 9.601562 20.800781 9.601562 21.039062 9.761719 21.199219 10 21.199219L12 21.199219C12.238281 21.199219 12.398438 21.039062 12.398438 20.800781 12.398438 20.558594 12.238281 20.398438 12 20.398438zM12 20.398438"/>
</svg>

<svg xmlns="http://www.w3.org/2000/svg" width="32" height="32" viewBox="0 0 24 24">
    <path d="M20.8 16.8a.39.39 0 0 0-.562 0l-1.437 1.438-1.442-1.437a.385.385 0 0 0-.558 0 .385.385 0 0 0 0 .558l1.437 1.442-1.398 1.398a.39.39 0 0 0 0 .563c.082.078.16.117.281.117.078 0 .2-.04.277-.117l1.403-1.403 1.398 1.403c.082.078.16.117.281.117.122 0 .239-.04.282-.117a.396.396 0 0 0 0-.563l-1.403-1.398 1.442-1.442a.385.385 0 0 0 0-.558zm0 0M2.8 1.2c-.878 0-1.6.722-1.6 1.6 0 .88.722 1.598 1.6 1.598.88 0 1.598-.718 1.598-1.597 0-.88-.718-1.602-1.597-1.602zm0 2.402A.804.804 0 0 1 2 2.8C2 2.359 2.36 2 2.8 2c.438 0 .802.36.802.8 0 .438-.364.802-.801.802zm0 0M6.398 1.2c-.878 0-1.597.722-1.597 1.6 0 .88.719 1.598 1.597 1.598C7.281 4.398 8 3.68 8 2.801c0-.88-.719-1.602-1.602-1.602zm0 2.402a.801.801 0 0 1 0-1.602c.442 0 .801.36.801.8 0 .438-.36.802-.8.802zm0 0M10 1.2c-.879 0-1.602.722-1.602 1.6 0 .88.723 1.598 1.602 1.598.879 0 1.602-.718 1.602-1.597 0-.88-.723-1.602-1.602-1.602zm0 2.402a.804.804 0 0 1-.8-.801.802.802 0 0 1 1.6 0c0 .437-.359.8-.8.8zm0 0"/>
    <path d="M22.879 0H1.16C.52 0 0 .52 0 1.16v21.48C0 23.399.602 24 1.36 24H18.8a5.19 5.19 0 0 0 5.2-5.2V1.16C24 .52 23.48 0 22.879 0zM18.8 23.2a4.389 4.389 0 0 1-4.403-4.4 4.39 4.39 0 0 1 4.403-4.402 4.389 4.389 0 0 1 4.398 4.403 4.388 4.388 0 0 1-4.398 4.398zm4.398-7.18a5.186 5.186 0 0 0-4.043-2.407c-.011 0-.023-.004-.035-.004-.039 0-.082-.004-.121-.004-.016 0-.027-.003-.043-.003h-.156a5.183 5.183 0 0 0-1.91.359l-.118.047a4.94 4.94 0 0 0-.671.344 5.087 5.087 0 0 0-1.152.95c-.141.151-.274.315-.391.483a4.733 4.733 0 0 0-.5.871 5.16 5.16 0 0 0-.457 2.145v.187A5.186 5.186 0 0 0 16.02 23.2H1.36a.544.544 0 0 1-.56-.558V5.6h22.4zM.801 4.8V1.16C.8.96.96.8 1.16.8H22.84c.2 0 .36.16.36.36V4.8zm0 0"/>
    <path d="M2.398 8.398h5.204C7.84 8.398 8 8.238 8 8c0-.238-.16-.398-.398-.398H2.398C2.16 7.602 2 7.762 2 8c0 .238.16.398.398.398zm0 0M9.2 8.398h4c.241 0 .402-.16.402-.398 0-.238-.16-.398-.403-.398h-4c-.238 0-.398.16-.398.398 0 .238.16.398.398.398zm0 0M14.8 8.398h.802c.238 0 .398-.16.398-.398 0-.238-.16-.398-.398-.398H14.8c-.242 0-.403.16-.403.398 0 .238.16.398.403.398zm0 0M11.2 9.602c0 .238.16.398.402.398h6c.238 0 .398-.16.398-.398 0-.243-.16-.403-.398-.403h-6c-.243 0-.403.16-.403.403zm0 0M10.398 9.602c0-.243-.16-.403-.398-.403H4.398C4.16 9.2 4 9.36 4 9.602c0 .238.16.398.398.398H10c.238 0 .398-.16.398-.398zm0 0M2.398 10h.403c.238 0 .398-.16.398-.398 0-.243-.16-.403-.398-.403h-.403C2.16 9.2 2 9.36 2 9.602c0 .238.16.398.398.398zm0 0M2.398 11.602H6c.238 0 .398-.16.398-.403 0-.238-.16-.398-.398-.398H2.398c-.238 0-.398.16-.398.398 0 .242.16.403.398.403zm0 0M7.602 11.602h.796c.243 0 .403-.16.403-.403 0-.238-.16-.398-.403-.398h-.796c-.243 0-.403.16-.403.398 0 .242.16.403.403.403zm0 0M15.602 10.8H10c-.238 0-.398.16-.398.4 0 .241.16.402.398.402h5.602c.238 0 .398-.16.398-.403 0-.238-.16-.398-.398-.398zm0 0M2.398 13.2h5.204c.238 0 .398-.16.398-.4 0-.241-.16-.402-.398-.402H2.398c-.238 0-.398.16-.398.403 0 .238.16.398.398.398zm0 0M13.2 12.398h-4c-.24 0-.4.16-.4.403 0 .238.16.398.4.398h4c.241 0 .402-.16.402-.398 0-.242-.16-.403-.403-.403zm0 0M13.2 14h-1.598c-.243 0-.403.16-.403.398 0 .243.16.403.403.403h1.597c.242 0 .403-.16.403-.403 0-.238-.16-.398-.403-.398zm0 0M4 14.398c0 .243.16.403.398.403H10c.238 0 .398-.16.398-.403 0-.238-.16-.398-.398-.398H4.398c-.238 0-.398.16-.398.398zm0 0M2.398 14.8h.403c.238 0 .398-.16.398-.402 0-.238-.16-.398-.398-.398h-.403c-.238 0-.398.16-.398.398 0 .243.16.403.398.403zm0 0M2.398 16.398H6c.238 0 .398-.16.398-.398 0-.238-.16-.398-.398-.398H2.398c-.238 0-.398.16-.398.398 0 .238.16.398.398.398zm0 0M7.602 16.398h.796c.243 0 .403-.16.403-.398 0-.238-.16-.398-.403-.398h-.796c-.243 0-.403.16-.403.398 0 .238.16.398.403.398zm0 0M12.8 15.602H10c-.238 0-.398.16-.398.398 0 .238.16.398.398.398h2.8c.24 0 .4-.16.4-.398 0-.238-.16-.398-.4-.398zm0 0M2.398 18h5.204c.238 0 .398-.16.398-.398 0-.243-.16-.403-.398-.403H2.398c-.238 0-.398.16-.398.403 0 .238.16.398.398.398zm0 0M9.2 18h2c.241 0 .402-.16.402-.398 0-.243-.16-.403-.403-.403h-2c-.238 0-.398.16-.398.403 0 .238.16.398.398.398zm0 0M4 19.2c0 .241.16.402.398.402H10c.238 0 .398-.16.398-.403 0-.238-.16-.398-.398-.398H4.398c-.238 0-.398.16-.398.398zm0 0M2.398 19.602h.403c.238 0 .398-.16.398-.403 0-.238-.16-.398-.398-.398h-.403c-.238 0-.398.16-.398.398 0 .242.16.403.398.403zm0 0M2.398 21.2H6c.238 0 .398-.16.398-.4 0-.241-.16-.402-.398-.402H2.398c-.238 0-.398.16-.398.403 0 .238.16.398.398.398zm0 0M8.398 20.398h-.796c-.243 0-.403.16-.403.403 0 .238.16.398.403.398h.796c.243 0 .403-.16.403-.398 0-.242-.16-.403-.403-.403zm0 0M12 20.398h-2c-.238 0-.398.16-.398.403 0 .238.16.398.398.398h2c.238 0 .398-.16.398-.398 0-.242-.16-.403-.398-.403zm0 0"/>
</svg>
